!!!OTL: Vaterlandsruf. 1813.
!!!OTL-incipit:HINAUS HINAUS ES RUFT DAS VATERLAND
!!!COM: Volksweise
!!!ARE: Europa, Mitteleuropa, Deutschland
!!!SCT: F0415
!!!TXL: @@DE
!!!YEM: Copyright 1995, estate of Helmut Schaffrath.
**kern	**text
*ICvox	*
*clefG2	*
*M4/4	*
*met(c)	*
*k[b-]	*
*F:	*
!LO:TX:a:t=Schrittmäßsig.	!
{8c	1._Hinaus,
8.d	.
16e	hinaus!
=1	=1
4.f	.
8e	es
8.f	ruft
16g	das
8.a	Vater-
16bn/	.
=2	=2
2cc	-land;
8r}	.
{8cc	eilt,
8.dd	Männer,
16cc	.
=3	=3
4.b-X	eilt
8g	ʒu
8.a	kämpfen
16f	.
8.cc	und
16a	ʒu
=4	=4
4g	ſie-
32b-Lqq	.
32aJqq	.
4g	-gen;
8r}	.
{8c	im
8.a	Glauben
16g	.
=5	=5
4.f	ſtark
8e	bewaff-
8.f	.
16g	-net
8.a	euch
16bn/	die
=6	=6
2cc	Hand!
8r}	.
{8d	Jhr
8e	dürft
8f	nicht
=7	=7
4g	wanken,
8eeL	.
8ccJ	.
4g	nicht
8aL	er-
8bnJ	.
=8	=8
4cc	-lie-
32eeLqq	.
32ddJqq	.
4cc	-gen;
8r}	.
{8cc/L	ihr
8dd	ſtreitet
8ccJ	.
=9	=9
4.b-X	nicht
8g	um
8.a	Ehre,
16f	.
8.cc	Ruhm
16a	und
=10	=10
2g	Gold,
8r}	.
{8cc	das
8dd	teutſche
8cc	.
=11	=11
4.b-	Recht
8g	er-
8.a	-kämpfet
16f	.
8.cc	ihr
16a	euch
=12	=12
4g	wie-
32b-qqL	.
32aqqJ	.
4g	-der,
8r}	.
!LO:TX:a:t=Das ʒweite Mal Alle.	!
{8c	und
8a	teutſche
8g	.
=13	=13
8f	Freiheit,
8c	.
8a	teutſche
8g	.
8f	Treue,
8c	.
8a	teutſche
8f	.
=14	=14
(4.cc	Lie-
8b-)	.
8g}	-der
{8g	er-
8.cc	-warten
16b-	.
=15	=15
4.a	euch
8a	als
8.g	ſchönſter
16f	.
8.g	Ehren-
16cc	.
=16	=16
2f	-ſold.
8r}	.
{8c	und
8a	teutſche
8g	.
=17	=17
8f	Freiheit,
8c	.
8a	teutſche
8g	.
8f	Treue,
8c	.
8a	teutſche
8f	.
=18	=18
(4.cc	Lie-
8b-)	.
8g}	-der
{8g	er-
8.cc	-warten
16b-	.
=19	=19
4.a	euch
8a	als
8.g	ſchönſter
16f	.
8.g	Ehren-
16cc	.
=20	=20
2f	-ſold.
8r}	.
==;	==;
!!!AGN: Vaterlands -, Heimat - Lied, nationalistisch, Krieg
!!!ONB: ESAC (Essen Associative Code) Database: FINK
!!!AMT: simple quadruple
!!!AIN: vox
!!!EED: Helmut Schaffrath
!!!EEV: 1.0
!!!GTL: Vaterlands- und Heimathslieder
!!(1813.) 
!!!source: Musikalischer Hausschatz der Deutschen. Eine Sammlung von über 1000 Liedern und Gesängen mit Singstimmen und Klavierbegleitung. Leipzig, Litterarisches Verlags-Haus.
!!!page: 254
!!!URL-scan:https://www.digitale-sammlungen.de/en/view/bsb11144622?page=244,245
!!!ENC: Anna Maria Matuszewska
!!!EEV: 2024/07/31
*-	*-
